include/LD/assets/icons/custom/custom28.svg

<?xml version="1.0"?><svg xmlns="http://www.w3.org/2000/svg" width="100" height="100" viewBox="0 0 100 100"><path fill="#fff" d="m64 20h-28c-3.3 0-6 2.7-6 6v48c0 3.3 2.7 6 6 6h28c3.3 0 6-2.7 6-6v-48c0-3.3-2.7-6-6-6z m-14 58c-1.7 0-3-1.3-3-3s1.3-3 3-3 3 1.3 3 3-1.3 3-3 3z m14-10c0 1.1-0.9 2-2 2h-24c-1.1 0-2-0.9-2-2v-38c0-1.1 0.9-2 2-2h24c1.1 0 2 0.9 2 2v38z"></path></svg>

<svg xmlns="http://www.w3.org/2000/svg" x="0px" y="0px"
	 width="100px" height="100px" viewBox="0 0 100 100" enable-background="new 0 0 100 100" xml:space="preserve">
<path fill="#FFFFFF" d="M64,20H36c-3.3,0-6,2.7-6,6v48c0,3.3,2.7,6,6,6h28c3.3,0,6-2.7,6-6V26C70,22.7,67.3,20,64,20z M50,78
	c-1.7,0-3-1.3-3-3s1.3-3,3-3s3,1.3,3,3S51.7,78,50,78z M64,68c0,1.1-0.9,2-2,2H38c-1.1,0-2-0.9-2-2V30c0-1.1,0.9-2,2-2h24
	c1.1,0,2,0.9,2,2V68z"/>
</svg>
